!!!!SEGMENT: pl-sa--549-a-ix-29--040_anonim--mazur.krn
!!!cenid: 18xx:494
!!!COM: Anonim
!!!COM-rismID: pe30004985
!!!CDT:
!!!CNT:
!!!OTL: Mazur
!!!PDT:
!!!AGN: Secular; Mazurka
!!!SMS-siglum: PL-SA
!!!SMS-shelfmark: 549/A IX 29
!!!SMS-shelfwork: 040 W
!!!SMS-variant:
!!!SMS-altvar:
!!!NIFC-rismSourceID: 1001068936
!!!NIFC-islandoraID:
!!!URL-pdf-islandora:
!!!URL-scan: https://bc.bdsandomierz.pl/dlibra/publication/1441/edition/1409/content @EN{Scan in the Sandomierz Diocese Digital Library} @PL{Skany w portalu Cyfrowa Biblioteka Diecezjalna w Sandomierzu}
!!!ONB-nifc: Str. 29, s. 3-4
!!!AIN: 1 piano
!!!key: F
**kern	**kern
*group1	*group1
*part1	*part1
*staff2	*staff1
*I"[Piano]	*I"[Piano]
*Ipiano	*Ipiano
*ICklav	*ICklav
*clefF4	*clefG2
*k[b-]	*k[b-]
*F:	*F:
*M3/8	*M3/8
*>[A,A,B,B,C,C]	*>[A,A,B,B,C,C]
=1	=1
*>A	*>A
!!mixed beam:problem
!LO:TX:t=P:problem=mixed beam	!
8FF/L	16c/LL
.	16f/JJ 16a/
8F\	8.f/L 8.a/
8F\J	.
.	16c/Jk
=2	=2
*rep	*
8FF/L	16.f/LL 16.a/
.	32c/JJk
8F\	8.f/L 8.a/
8F\J	.
.	16cc/Jk
*Xrep	*
=3	=3
8CC/L	16c/LL
.	16g/JJ 16b-/
8C/	8.g/L 8.b-/
8C/J	.
.	16c/Jk
=4	=4
*rep	*
8CC/L	16.g/LL 16.b-/
.	32e/JJk
8C/	8g/L 8b-/
8C/J	8cc/J
*Xrep	*
=5:|!	=5:|!
*>B	*>B
!!mixed beam:problem
!LO:TX:t=P:problem=mixed beam	!
8FF/L	16c/LL
.	16f/JJ 16a/
8D\	8.f/L 8.a/
8D\J	.
.	16c/Jk
=6	=6
*rep	*
8FF/L	16.f/LL 16.a/
.	32c/JJk
8D\	8f/L 8a/
8D\J	8cc/J
*Xrep	*
=7	=7
8CC/L	16cc/LL
.	16bn/
8C/	16cc/
.	16c/
8C/J	16d/
.	16e/JJ
=8	=8
!!mixed beam:problem
!LO:TX:t=P:problem=mixed beam	!
8F\L	16g/LL
.	16f/JJ
8FF/J	4f/
8r	.
!!LO:LB:g=original
=9:|!|:	=9:|!|:
*>C	*>C
!!mixed beam:problem
!	!LO:TX:t=P:problem=mixed beam
4.BB-\ 4.B-\	16.f/LL
.	32dd\JJk 32ff\
.	8dd\ 8ff\L
.	8dd\ 8ff\J
=10	=10
!!mixed beam:problem
!	!LO:TX:t=P:problem=mixed beam
4.BB-\ 4.B-\	16.f/LL
.	32cc\JJk 32ee\
.	8cc\L 8ee\
.	8b-\J 8dd\
=11	=11
.	8qee/
4.BB-\ 4.B-\	16dd\LL
.	16cc#X\
.	16dd\
.	16ee\
.	16ff\
.	16dd\JJ
=12	=12
!LO:N:vis=4	!
8FF/ 8F/	8a\
4FF/ 4F/	4cc\ 4ff\
=13	=13
4CC/ 4C	16cc/LL
.	16b-/J
.	8g/
!LO:N:vis=4	!
8CC/ 8C	16e/L
.	16g/JJ
=14	=14
4FF/ 4F/	16dd\LL
.	16cc\JJ
.	8.a/L
8FF/ 8F/	.
.	16f/Jk
=15	=15
4CC/ 4C/	16cc/LL
.	16bn/
.	16cc/
.	16c/
!LO:N:vis=4	!
8CC/ 8C/	16d/
.	16e/JJ
=16	=16
!!mixed beam:problem
!LO:TX:a:t=P:problem=mixed beam	!
8F\L	16g/LL
.	16f/JJ
8FF/J	4f/
8r	.
=:|!;>	=:|!;>
*-	*-
!!!system-decoration: [{g1}]
!!!ENC: Anastazja Marusiak
!!!END: 2020-06-17
!!!EED: Jędrzej Mróz
!!!EEV: 2022-01-05
!!!YEC: Copyright 2022 Narodowy Instytut Fryderyka Chopina (https://polishscores.org)
!!!YEM: Licence CC BY 4.0 (https://creativecommons.org/licenses/by/4.0)
